X:1
T:Hokkaido, 87.87 D
T:Hokkaido, 87.87 D
T:John Robson Sweney, 1888
T:Public Domain Courtesy of the Cyber Hymnal™
C:John Robson Sweney, 1888
Z:Public Domain
Z:Courtesy of the Cyber Hymnal™
%%score ( 1 2 ) ( 3 4 )
L:1/8
Q:1/4=100
M:6/8
K:G
V:1 treble 
V:2 treble 
V:3 bass 
V:4 bass 
V:1
 [DB]3 [B,G]2 [CA] | [DB][B,D][CE] [B,D] [DG]2 | [FA][FA][FA] [FA][EG][FA] | (B3 !fermata!d3) | %4
 [DB]3 [B,G]2 [CA] | [DB][B,D][CE] [B,D] [DG]2 | [^CA][CA][CG] [DB][DB]>[DA] | [DG]3- [DG]2 z | %8
 [EG]3 [Ec]2 [CE] | [CE][EG][Gc] [Gc] [GB]2 | [FA]3 [Fd]2 [DF] | [^CA][CG][CE] (D2 !fermata!=c) | %12
 [DB]3 [B,G]2 [CA] | [DB][B,D][CE] [B,D] [DG]2 | [^CA][CA][CG] [DB][DB]>[DA] | [DG]6 |] %16
V:2
 x6 | x6 | x6 | G6 | x6 | x6 | x6 | x6 | x6 | x6 | x6 | x3 D3 | x6 | x6 | x6 | x6 |] %16
V:3
 [G,,G,]3 [G,,D,]2 [G,,D,] | [G,,G,][G,,G,][G,,G,] [G,,G,] [G,,B,]2 | %2
 [D,D][D,D][D,D] [D,D][D,D][D,D] | (D3 !fermata!B,3) | G,3 [G,,D,]2 [G,,D,] | %5
 [G,,G,][G,,G,][G,,G,] [G,,G,] [G,,B,]2 | [E,A,][E,A,][E,A,] [D,G,][D,G,]>[D,C] | %7
 [G,,B,]3- [G,,B,]2 z | [C,C][C,C][C,C] [C,G,][C,G,][C,G,] | [C,G,][C,C][C,E] [G,E] [G,D]2 | %10
 [A,D][A,D][A,D] A,A,[A,,A,] | [A,,E,][A,,E,][A,,G,] ([D,F,]>[E,G,]!fermata![F,A,]) | %12
 G,3 [G,,D,]2 [G,,D,] | [G,,G,][G,,G,][G,,G,] [G,,G,] [G,,B,]2 | %14
 [E,A,][E,A,][E,A,] [D,G,][D,G,]>[D,C] | [G,,B,]6 |] %16
V:4
 x6 | x6 | x6 | G,6 | G,3 x3 | x6 | x6 | x6 | x6 | x6 | x3 A,A, x | x6 | G,3 x3 | x6 | x6 | x6 |] %16

